X:1
T:Title
%%score { 1 | 2 }
L:1/8
M:3/4
K:F
V:1 treble nm="Grand Piano"
V:2 bass 
V:1
 z2 z2[Q:1/4=100] A2 | GF F2 B2 | BA A2 [Ac]2 | [Ac][GB] [EG]2 [GB]2 | A4 A2 | GF F2 A2 | %6
 [FA][EG] [EG]2 [Gc]2 | c=B A2 B2 | [Ec]4 [GB]2 | A_A =A2 d2 | c=B c2 A2 | [GB][^FA] [GB]2 [Ac]2 | %12
 [FA]4 [Fc]2 | [Fd][Fd] [FB]2 [Fd]2 | dc c2 A2 | [EG][FA] [EB]2 E2 |[M:2/4] F4 |[M:1/4] c2 | %18
[M:3/4] [Ac][GB] [EG]2 [Ed]2 | dc A2 c2 | [Ec][EG] [FA]2 [GB]2 | [FA]4 [Fc]2 | %22
 [Fd][Fd] [Fd]2 [Fd]2 | dc c2 F2 | [DG][DA] [DB]2 E2 |[M:2/4] F4 |] %26
V:2
 z2 z2 [F,CF]2 | [F,B,C][F,A,C] [F,A,C]2 [F,DF]2 | [F,DF][F,CF] [F,CF]2 [F,C]2 | %3
 [C,C][C,C] [C,C]2 [C,C]2 | [F,CF]4 [F,CF]2 | [F,B,C][F,A,C] [F,A,C]2 [F,CF]2 | %6
 [C,C][C,C] [C,C]2 [E,C]2 | [G,DF][G,DF] [G,DF]2 [G,DF]2 | [C,C]4 [C,C]2 | %9
 [F,CF][F,=B,F] [F,CF]2 [F,_B,F]2 | [F,A,F][F,G,F] [F,A,F]2 [F,CF]2 | [C,C][C,C] [C,C]2 [C,C]2 | %12
 [F,C]4 [F,A,]2 | [B,,B,][B,,B,] [D,B,]2 [B,,B,]2 | [F,B,F][F,A,F] [F,A,F]2 [F,CF]2 | %15
 [C,B,][C,A,] [C,G,]2 [C,B,C]2 |[M:2/4] [F,A,C]4 |[M:1/4] [F,A,F]2 | %18
[M:3/4] [C,C][C,C] [C,C]2 [C,B,]2 | [F,B,F][F,A,F] [F,CF]2 [F,A,F]2 | [C,G,][C,C] [C,C]2 [C,C]2 | %21
 [F,C]4 [F,A,]2 | [B,,B,][B,,B,] [B,,B,]2 [D,B,]2 | [F,B,F][F,A,F] [F,A,F]2 [D,A,]2 | %24
 [B,,G,][A,,^F,] [G,,G,]2 [C,B,C]2 |[M:2/4] [F,A,C]4 |] %26

